core/assets/icons/installment.filled.svg

<svg width="24" height="24" viewBox="0 0 24 24" xmlns="http://www.w3.org/2000/svg"><g id="installment=filled"><path id="Vector" d="M21 4V18.721C21.0001 18.818 20.972 18.913 20.9191 18.9943C20.8662 19.0756 20.7908 19.1398 20.702 19.179L12 23.03L3.298 19.18C3.20894 19.1407 3.13329 19.0762 3.08035 18.9945C3.02742 18.9128 2.99949 18.8174 3 18.72V4H1V2H23V4H21ZM8 12V14H16V12H8ZM8 8V10H16V8H8Z"/></g></svg>

<svg xmlns="http://www.w3.org/2000/svg" width="24" height="24" fill="none"><path fill="#191C22" d="M21 4v14.721a.5.5 0 0 1-.298.458L12 23.03l-8.702-3.85A.5.5 0 0 1 3 18.72V4H1V2h22v2h-2ZM8 12v2h8v-2H8Zm0-4v2h8V8H8Z"/></svg>
